application-braces-outline.svg

<svg fill="currentColor" viewBox="0 0 24 24"><path d="M21 2H3c-1.1 0-2 .9-2 2v16c0 1.1.9 2 2 2h18c1.1 0 2-.9 2-2V4c0-1.1-.9-2-2-2m0 18H3V6h18zM9 8c-1.1 0-2 .9-2 2s-.9 2-2 2v2c1.1 0 2 .9 2 2s.9 2 2 2h2v-2H9v-1c0-1.1-.9-2-2-2 1.1 0 2-.9 2-2v-1h2V8m4 0c1.1 0 2 .9 2 2s.9 2 2 2v2c-1.1 0-2 .9-2 2s-.9 2-2 2h-2v-2h2v-1c0-1.1.9-2 2-2-1.1 0-2-.9-2-2v-1h-2V8z"/></svg>

<svg  viewBox="0 0 24 24" fill="currentColor"><path  d="M21 2H3C1.9 2 1 2.9 1 4V20C1 21.1 1.9 22 3 22H21C22.1 22 23 21.1 23 20V4C23 2.9 22.1 2 21 2M21 20H3V6H21V20M9 8C7.9 8 7 8.9 7 10C7 11.1 6.1 12 5 12V14C6.1 14 7 14.9 7 16C7 17.1 7.9 18 9 18H11V16H9V15C9 13.9 8.1 13 7 13C8.1 13 9 12.1 9 11V10H11V8M15 8C16.1 8 17 8.9 17 10C17 11.1 17.9 12 19 12V14C17.9 14 17 14.9 17 16C17 17.1 16.1 18 15 18H13V16H15V15C15 13.9 15.9 13 17 13C15.9 13 15 12.1 15 11V10H13V8H15Z"/></svg>
